images/calendar-svg.svg

<svg width="14" height="15" fill="none" xmlns="http://www.w3.org/2000/svg"><path d="M11.6667 2.25c0-.32216-.2612-.58332-.5833-.58332H9.33335V.5H8.16668v1.16668h-1.75V.5H5.25v1.16668H3.5V.5H2.33332v1.16668H.583324C.26116 1.66668 0 1.92784 0 2.25v1.16668h11.6667V2.25zM9.32291 7.08867c.38185-.11457.77849-.17251 1.17709-.17202.3952.00035.7882.05832 1.1667.17207V4H0v7.5833c0 .3222.26116.5833.583324.5833H6.58875c-.64723-2.1572.5769-4.43068 2.73416-5.07793zM8.16668 5.16668h1.16667v1.16667H8.16668V5.16668zm-2.91668 0h1.16668v1.16667H5.25V5.16668zM3.5 11H2.33332V9.83332H3.5V11zm0-2.33332H2.33332V7.5H3.5v1.16668zm0-2.33336H2.33332V5.16665H3.5v1.16667zM5.25 7.5h1.16668v1.16668H5.25V7.5z" fill="#FFBD54"/><path d="M10.5 7.5C8.56702 7.5 7 9.06702 7 11c0 1.933 1.56702 3.5 3.5 3.5 1.933 0 3.5-1.567 3.5-3.5-.0022-1.93205-1.5679-3.49776-3.5-3.5zm.4124 3.9124c-.1566.1554-.3871.2099-.5967.1412l-1.75002-.5833.36925-1.10835 1.40757.46665 1.4951-1.49505.8248.82483-1.75 1.75402z" fill="#FFBD54"/></svg>

<svg width="14" height="15" viewBox="0 0 14 15" fill="none" xmlns="http://www.w3.org/2000/svg">
<path d="M11.6667 2.25C11.6667 1.92784 11.4055 1.66668 11.0834 1.66668H9.33335V0.5H8.16668V1.66668H6.41668V0.5H5.25V1.66668H3.5V0.5H2.33332V1.66668H0.583324C0.26116 1.66668 0 1.92784 0 2.25V3.41668H11.6667V2.25Z" fill="#FFBD54"/>
<path d="M9.32291 7.08867C9.70476 6.9741 10.1014 6.91616 10.5 6.91665C10.8952 6.917 11.2882 6.97497 11.6667 7.08872V4H0V11.5833C0 11.9055 0.26116 12.1666 0.583324 12.1666H6.58875C5.94152 10.0094 7.16565 7.73592 9.32291 7.08867ZM8.16668 5.16668H9.33335V6.33335H8.16668V5.16668ZM5.25 5.16668H6.41668V6.33335H5.25V5.16668ZM3.5 11H2.33332V9.83332H3.5V11ZM3.5 8.66668H2.33332V7.5H3.5V8.66668ZM3.5 6.33332H2.33332V5.16665H3.5V6.33332ZM5.25 7.5H6.41668V8.66668H5.25V7.5Z" fill="#FFBD54"/>
<path d="M10.5 7.5C8.56702 7.5 7 9.06702 7 11C7 12.933 8.56702 14.5 10.5 14.5C12.433 14.5 14 12.933 14 11C13.9978 9.06795 12.4321 7.50224 10.5 7.5ZM10.9124 11.4124C10.7558 11.5678 10.5253 11.6223 10.3157 11.5536L8.56568 10.9703L8.93493 9.86195L10.3425 10.3286L11.8376 8.83355L12.6624 9.65838L10.9124 11.4124Z" fill="#FFBD54"/>
</svg>
